X:1
T:Title
%%score ( 1 2 ) { 3 | 4 }
L:1/8
Q:1/4=112
M:2/2
K:Ab
V:1 treble nm="Grand Piano, Soprano"
V:2 treble 
V:3 bass nm="Choir Pad, Jesus the Way, S.S. Fisher"
V:4 bass 
V:1
 [Ec]4 [DB]2 [CA]2 | [DA]3 [DF] [DF]4 | E2 c2 [EA]3 E | c4 B4 | [Ec]4 [DB]2 [CA]2 | %5
w: By~William~Howard~Doane * *|||||
 [DA]3 [DF] [DF]4 | [CE]2 [Ec]2 [Ec]3 [DB] | [CA]8 | [EB]4 [EA]2 [EG]2 | [Ec]3 [EB] [EA]4 | %10
w: |||||
 [Ec]4 [EB]2 [EA]2 | [Ee]3 [Ed] [Ec]4 | [Ec]4 [DB]2 [CA]2 | [DA]3 [DF] [DF]4 | %14
w: ||||
 [CE]2 [Ec]2 [Ec]3 [DB] | [CA]8 | [Ec]4 [EA]3 E | c4 B4 | [Ed]4 [EB]3 [EG] | [DB]4 [CA]4 | %20
w: ||||||
 [Ec]4 [DB]2 [CA]2 | [DA]3 [DF] [DF]4 | [CE]2 [Ec]2 [Ec]3 [DB] | [CA]8 |] %24
w: ||||
V:2
 x8 | x8 | C4 z4 | E8 | x8 | x8 | x8 | x8 | x8 | x8 | x8 | x8 | x8 | x8 | x8 | x8 | x8 | E8 | x8 | %19
 x8 | x8 | x8 | x8 | x8 |] %24
V:3
 A,4 E,2 E,2 | F,3 A, A,4 | A,2 E,2 C3 A, | A,4 G,4 | A,4 E,2 E,2 | F,3 A, A,4 | A,4 A,3 E, | E,8 | %8
 D4 C2 B,2 | A,3 D C4 | A,4 D2 C2 | A,3 G, A,4 | A,4 E,2 E,2 | F,3 A, A,4 | A,4 A,3 E, | E,8 | %16
 A,2 E,2 C3 A, | A,4 G,4 | G,2 B,2 D3 B, | E,4 A,,4 | A,4 E,2 E,2 | F,3 A, A,4 | A,4 A,3 E, | %23
 E,8 |] %24
V:4
 A,,4 A,,2 A,,2 | D,3 D, D,4 | A,,4 A,,3 C, | E,8 | A,,4 A,,2 A,,2 | D,3 D, D,4 | E,4 E,4 | A,,8 | %8
 E,4 E,2 E,2 | z2 z A, A,4 | A,,4 A,,2 A,,2 | C,3 C, A,,4 | A,,4 A,,2 A,,2 | D,3 D, D,4 | E,4 E,4 | %15
 A,,8 | A,,4 A,,3 C, | E,8 | E,4 E,3 E, | z8 | A,,4 A,,2 A,,2 | D,3 D, D,4 | E,4 E,4 | A,,8 |] %24

